X:1
T:49
T:49
T:Études enfantines op. 37
T:Henry Lemoine
C:Henry Lemoine
%%score { 1 | 2 }
L:1/8
Q:1/4=134
M:3/4
K:G
V:1 treble nm="Piano" snm="Pno."
V:2 bass 
V:1
"^Moderato"!mf! z .!1!!2!!5![bd'g'] .!1!!3!!5![gbd'].!1!!3!!5![dgb] .!1!!2!!5![Bdg].!1!!2!!4![GBd] | %1
 z .!1!!3!!5![c'e'g'] .!1!!3!!5![gc'e'].!1!!2!!5![egc'] .!1!!3!!5![ceg].!1!!3!!5![Gce] | %2
 z .!1!!2!!5![bd'g'] .!1!!3!!5![gbd'].!1!!3!!5![dgb] .!1!!3!!5![Bdg].!1!!3!!5![dgb] | %3
 !tenuto![dfa]6 | %4
!mf! z .!1!!2!!5![bd'g'] .!1!!3!!5![gbd'].!1!!3!!5![dgb] .!1!!2!!5![Bdg].!1!!2!!4![GBd] | %5
 z .!1!!3!!5![c'e'g'] .!1!!3!!5![gc'e'].!1!!2!!5![egc'] .!1!!3!!5![ceg].!1!!3!!5![Gce] | %6
 z .!1!!2!!5![Bdg] .!1!!3!!5![dgb].!1!!2!!5![Bdg] .!1!!2!!5![cda].!1!!2!!4![Adf] | %7
 .!1!!2!!5![Bdg] z !^![B,DG]2 z2 :|!f! !tenuto!!1!!2!!4![Beg]6 | !tenuto![cea]6 | !tenuto![Beg]6 | %11
 z!8va(! .!2!!3!!5![^d'f'b'] .!1!!2!!3![bd'f'].!1!!2!!4![fbd']!8va)! .!2!!3!!5![^dfb].!1!!2!!3![Bdf] | %12
!f! !tenuto!!1!!2!!4![Beg]6 | !tenuto![c=fa]6 | %14
 [Beg]2 z .!1!!2!!4![B,EG] .!1!!3!!5![Beg].!1!!2!!4![B^df] | .!1!!3![Be] z!ff! .[gbe'] z z2 | %16
!mf! z .!1!!2!!5![bd'g'] .!1!!3!!5![gbd'].!1!!3!!5![dgb] .!1!!2!!5![Bdg].!1!!2!!4![GBd] | %17
 z .!1!!3!!5![c'e'g'] .!1!!3!!5![gc'e'].!1!!2!!5![egc'] .!1!!3!!5![ceg].!1!!3!!5![Gce] | %18
 z .!1!!2!!5![bd'g'] .!1!!3!!5![gbd'].!1!!3!!5![dgb] .!1!!3!!5![Bdg].!1!!3!!5![dgb] | %19
 !tenuto![dfa]6 | %20
!mf! z .!1!!2!!5![bd'g'] .!1!!3!!5![gbd'].!1!!3!!5![dgb] .!1!!2!!5![Bdg].!1!!2!!4![GBd] | %21
 z .!1!!3!!5![c'e'g'] .!1!!3!!5![gc'e'].!1!!2!!5![egc'] .!1!!3!!5![ceg].!1!!3!!5![Gce] | %22
!ff! z .!1!!2!!5![Bdg] .!1!!3!!5![dgb].!1!!2!!5![Bdg] .!1!!2!!5![cda].!1!!2!!4![Adf] | %23
 .!1!!2!!5![Bdg] z !^![B,DG]2 z2 |] %24
V:2
 .!5!!3!!1![G,B,D] z z2 .[G,B,D] z | .[G,CE] z z2 .[G,CE] z | .[G,B,D] z z2 .[G,B,D] z | %3
 z .!5!!3!!1![D,,F,,A,,] .!3!!2!!1![F,,A,,D,].!5!!2!!1![A,,D,F,] .!5!!3!!1![D,F,A,].!3!!2!!1![F,A,D] | %4
 .!4!!2!!1![G,B,D] z z2 .[G,B,D] z | .[C,E,G,] z z2 .[C,E,G,] z | .[D,G,B,] z z2 .[D,A,C] z | %7
 .[G,B,] z !^![G,,D,]2 z2 :| %8
 z .!5!!3!!1![E,,G,,B,,] .!5!!3!!1![G,,B,,E,].!5!!2!!1![B,,E,G,] .!5!!3!!1![E,G,B,].!5!!3!!1![G,B,E] | %9
 z .!5!!2!!1![E,,A,,C,] .!5!!3!!1![A,,C,E,].!5!!3!!1![C,E,A,] .!5!!2!!1![E,A,C].!4!!2!!1![A,CE] | %10
 z .!5!!3!!1![E,,G,,B,,] .!5!!3!!1![G,,B,,E,].!5!!2!!1![B,,E,G,] .!5!!3!!1![E,G,B,].!5!!3!!1![G,B,E] | %11
[K:treble] [B,^DF]4 z2 | %12
[K:bass] z .!5!!3!!1![E,,G,,B,,] .!5!!3!!1![G,,B,,E,].!5!!2!!1![B,,E,G,] .!5!!3!!1![E,G,B,].!5!!3!!1![G,B,E] | %13
 z .!5!!3!!1![A,,C,=F,] .!5!!2!!1![C,F,A,].!5!!3!!1![F,A,C][K:treble] .!5!!3!!1![A,C=F].!5!!2!!1![CFA] | %14
 z!ff! .!5!!2!!1![B,EG][K:bass] !^!!5!!3!!1![B,,E,G,]3 .[B,,^F,A,] | %15
 .!3!!1![E,G,] z .!4!!2!!1![E,G,B,] z z2 | %16
!ped! .G,, !^!!1!!2!!4![G,B,D]2 !^![G,B,D]2 .[G,B,D]!ped-up! | %17
!ped! .G,, !^!!5!!2!!1![G,CE]2 !^![G,CE]2 .[G,CE]!ped-up! | %18
!ped! .G,, !^!!1!!2!!4![G,B,D]2 !^![G,B,D]2 .[G,B,D]!ped-up! | %19
 z .!5!!3!!1![D,,F,,A,,] .!3!!2!!1![F,,A,,D,].!5!!2!!1![A,,D,F,] .!5!!3!!1![D,F,A,].!3!!2!!1![F,A,D] | %20
!ped! .G,, !^!!1!!2!!4![G,B,D]2 !^![G,B,D]2 .[G,B,D]!ped-up! | %21
!ped! .C,, !^!!1!!2!!4![C,E,G,]2 !^![C,E,G,]2 .[C,E,G,]!ped-up! | %22
!ped! .D,, !^![D,G,B,]2 .[D,G,B,]!ped-up! .[D,A,C].[D,A,C] | .[G,B,] z !^![G,,D,]2 z2 |] %24

